lingerie.svg

<svg fill="currentColor" viewBox="0 0 24 24"><path d="M22 7h-2V2h-2v2.34l-6 2.57-6-2.57V2H4v5H2v2h2.05c.25 2.25 2.14 4 4.45 4 1.42 0 2.68-.67 3.5-1.7.83 1.03 2.08 1.7 3.5 1.7 2.31 0 4.2-1.75 4.45-4H22zM8.5 11A2.5 2.5 0 0 1 6 8.5v-2l5 2.15C10.9 9.96 9.83 11 8.5 11M18 8.5a2.5 2.5 0 0 1-2.5 2.5c-1.33 0-2.4-1.04-2.5-2.35l5-2.15zM2 15v2h1c2.97 0 5.43 2.17 5.91 5h6.18c.48-2.83 2.94-5 5.91-5h1v-2zm11.59 5h-3.18a8.1 8.1 0 0 0-2.12-3h7.42c-.92.82-1.65 1.84-2.12 3"/></svg>

<svg  viewBox="0 0 24 24" fill="currentColor"><path  d="M22 7H20V2H18V4.34L12 6.91L6 4.34V2H4V7H2V9H4.05C4.3 11.25 6.19 13 8.5 13C9.92 13 11.18 12.33 12 11.3C12.83 12.33 14.08 13 15.5 13C17.81 13 19.7 11.25 19.95 9H22V7M8.5 11C7.12 11 6 9.88 6 8.5V6.5L11 8.65C10.9 9.96 9.83 11 8.5 11M18 8.5C18 9.88 16.88 11 15.5 11C14.17 11 13.1 9.96 13 8.65L18 6.5V8.5M2 15V17H3C5.97 17 8.43 19.17 8.91 22H15.09C15.57 19.17 18.03 17 21 17H22V15H2M13.59 20H10.41C9.94 18.84 9.21 17.82 8.29 17H15.71C14.79 17.82 14.06 18.84 13.59 20Z"/></svg>
